X: 1
T: Richmond
S: Claire Milliner, Just Tunes
R: reel
Z: 2020 John Chambers <jc:trillian.mit.edu>
S: https://www.facebook.com/groups/Fiddletuneoftheday/
S: https://www.facebook.com/groups/Fiddletuneoftheday/photos/
M: C|
L: 1/8
K: A
|:\
"A"e2c2 e2c2 | efec A2Ac | "E"B2G2 B2G2 | BcBG "A"A2A2 |
ABcd e2a2 | =gefd efed | "E"cABG EGBd |1 "A"c2A2 A2e2- :|2 "A"c2A2 A2[A2-A,2-] |
|:\
[A2A,2]ag a2a2 | c'4 e3f |[M:3/2] ef=ge "D"fd[f2d2] d2ef |[M:C|] "A"edcB A2G2 |
ABcd e2a2 | =gefd efed | "E"cABG EGBd |1 "A"c2A2 A2[A2-A,2-] :|2 "A"c2A2 A4 |]
